packages/core/src/svgs/tokens/branded/MAX.svg

<svg width="24" height="24" viewBox="0 0 24 24" fill="none" xmlns="http://www.w3.org/2000/svg">
<path fill-rule="evenodd" clip-rule="evenodd" d="M13.0515 18.5581C12.3756 19.2026 11.474 19.5564 10.5402 19.5437C9.6063 19.5309 8.71466 19.1525 8.05664 18.4897L2.99331 13.3265C2.67216 12.9965 2.41916 12.6064 2.24878 12.1786C2.0784 11.7508 1.99398 11.2936 2.00033 10.8332C2.00668 10.3728 2.10369 9.91811 2.28582 9.49515C2.46794 9.07231 2.7316 8.68937 3.06174 8.36837C3.73791 7.72229 4.64068 7.36748 5.5758 7.38028C6.51092 7.39308 7.40366 7.77246 8.06191 8.43679L13.1252 13.6001C13.4502 13.928 13.7066 14.3174 13.8794 14.7454C14.0522 15.1736 14.1379 15.6319 14.1315 16.0935C14.1251 16.5552 14.0268 17.0108 13.8423 17.434C13.6577 17.8572 13.3907 18.2394 13.0568 18.5581H13.0515ZM5.15654 11.4738C5.43573 11.4738 5.70348 11.3629 5.90089 11.1654C6.0983 10.968 6.2092 10.7003 6.2092 10.421C6.2092 10.1419 6.0983 9.87414 5.90089 9.67666C5.70348 9.4793 5.43573 9.3684 5.15654 9.3684C4.87735 9.3684 4.60961 9.4793 4.41219 9.67666C4.21478 9.87414 4.10388 10.1419 4.10388 10.421C4.10388 10.7003 4.21478 10.968 4.41219 11.1654C4.60961 11.3629 4.87735 11.4738 5.15654 11.4738ZM12.8147 16.0476C12.8147 17.0949 11.9568 17.9423 10.904 17.9423C9.85143 17.9423 8.99351 17.0949 8.99351 16.0476C8.99351 15.0002 9.85143 14.1528 10.904 14.1528C11.9568 14.1528 12.8147 15.0002 12.8147 16.0476Z" fill="url(#paint0_linear_364_14238)"/>
<path fill-rule="evenodd" clip-rule="evenodd" d="M8.44099 18.8371C8.01967 18.4702 7.67525 18.0236 7.42764 17.5229C7.18002 17.0221 7.03412 16.4773 6.9984 15.9197C6.96267 15.3623 7.03781 14.8032 7.21947 14.275C7.40113 13.7467 7.68571 13.2597 8.05676 12.8422L14.5148 5.54191C15.2692 4.69768 16.3257 4.18456 17.4556 4.11363C18.5855 4.0427 19.6979 4.41968 20.552 5.16295C20.9728 5.53012 21.3168 5.97709 21.564 6.47802C21.8111 6.97896 21.9566 7.52391 21.9918 8.08137C22.027 8.63883 21.9514 9.19777 21.7693 9.72586C21.5871 10.2539 21.3022 10.7406 20.9308 11.1578L14.478 18.4581C13.7237 19.3023 12.6671 19.8155 11.5373 19.8864C10.4074 19.9574 9.29498 19.5803 8.44099 18.8371ZM10.9042 17.9423C11.9569 17.9423 12.8149 17.0949 12.8149 16.0476C12.8149 15.0001 11.9569 14.1527 10.9042 14.1527C9.85156 14.1527 8.99364 15.0001 8.99364 16.0476C8.99364 17.0949 9.85156 17.9423 10.9042 17.9423ZM19.8939 8.57358C19.8939 9.2017 19.6445 9.80421 19.2003 10.2484C18.7561 10.6925 18.1537 10.9421 17.5255 10.9421C16.8973 10.9421 16.2948 10.6925 15.8508 10.2484C15.4065 9.80421 15.157 9.2017 15.157 8.57358C15.157 7.94542 15.4065 7.34298 15.8508 6.8988C16.2948 6.45463 16.8973 6.20509 17.5255 6.20509C18.1537 6.20509 18.7561 6.45463 19.2003 6.8988C19.6445 7.34298 19.8939 7.94542 19.8939 8.57358Z" fill="url(#paint1_linear_364_14238)"/>
<defs>
<linearGradient id="paint0_linear_364_14238" x1="19.5229" y1="6.07611" x2="8.78276" y2="17.6466" gradientUnits="userSpaceOnUse">
<stop stop-color="#0CB5AD"/>
<stop offset="1" stop-color="#9CCE7E"/>
</linearGradient>
<linearGradient id="paint1_linear_364_14238" x1="19.5231" y1="6.07606" x2="8.78288" y2="17.6466" gradientUnits="userSpaceOnUse">
<stop stop-color="#0CB5AD"/>
<stop offset="1" stop-color="#9CCE7E"/>
</linearGradient>
</defs>
</svg>

<svg xmlns="http://www.w3.org/2000/svg" width="24" height="24" fill="none" viewBox="0 0 24 24">
    <path fill="url(#MAX__a)" fill-rule="evenodd" d="M13.052 18.558a3.57 3.57 0 0 1-4.995-.068l-5.064-5.163a3.506 3.506 0 0 1 .069-4.959 3.57 3.57 0 0 1 5 .069l5.063 5.163a3.475 3.475 0 0 1-.068 4.958zm-7.895-7.084a1.052 1.052 0 1 0 0-2.105 1.052 1.052 0 0 0 0 2.105m7.658 4.574a1.904 1.904 0 0 1-1.911 1.894 1.904 1.904 0 0 1-1.91-1.894c0-1.048.857-1.895 1.91-1.895s1.91.847 1.91 1.895" clip-rule="evenodd"/>
    <path fill="url(#MAX__b)" fill-rule="evenodd" d="M8.441 18.837a4.23 4.23 0 0 1-.384-5.995l6.458-7.3a4.306 4.306 0 0 1 6.037-.379 4.23 4.23 0 0 1 .379 5.995l-6.453 7.3a4.305 4.305 0 0 1-6.037.38m2.463-.895c1.053 0 1.91-.847 1.91-1.894a1.904 1.904 0 0 0-1.91-1.895c-1.052 0-1.91.847-1.91 1.895 0 1.047.858 1.894 1.91 1.894m8.99-9.368a2.368 2.368 0 1 1-4.737 0 2.368 2.368 0 0 1 4.737 0" clip-rule="evenodd"/>
    <defs>
        <linearGradient id="MAX__a" x1="19.523" x2="8.783" y1="6.076" y2="17.647" gradientUnits="userSpaceOnUse">
            <stop stop-color="#0CB5AD"/>
            <stop offset="1" stop-color="#9CCE7E"/>
        </linearGradient>
        <linearGradient id="MAX__b" x1="19.523" x2="8.783" y1="6.076" y2="17.647" gradientUnits="userSpaceOnUse">
            <stop stop-color="#0CB5AD"/>
            <stop offset="1" stop-color="#9CCE7E"/>
        </linearGradient>
    </defs>
</svg>
